X:45
T:East at Glendart
R:jig
D:Planxty: After the Break
M:6/8
L:1/8
K:D
BAF AFD | ~F3 DFA | BAF AFD | FED EFA |
BAF FAD  | F2 F DFA | dcB AFE | EDC D3 :||
def d2 B | ABA AFA | def dAd | ede fdB |
def d2 B | ABA ABc | dcB AFE | EDC D3 :||
